X:244
T: LIEBES MAEDCHEN ICH STEH DRAUSSEN
N: E0830
O: Europa, Mitteleuropa, Deutschland, Niederrhein, Meurs
R: Kilt - Lied
M: 4/4
L: 1/8
K: Bb
 | B2B2cBAB | dcc2BAGF |
d2d2d2d2 | c4z4 |
e3cBAGF | d3BBFF2 |
G2e2d2c2 | B4z4 |
e3cBAGF | d3BBFF2 |
G2e2d2c2 | B4z4

